X: 34656
T: Road To Boston
R: polka
M: 2/4
K: Dmajor
|:A|dA dc/d/|ed cd|EF Gd|fe de/c/|
dA dc/d/|ed cd|EF GA|F2 F:|
|:f|f2 fe/f/|gf ed|ec ed/e/|fe dc|
dA dc/d/|ed cd|EF G A/G/|F2 F:|

